!!!OTL: ET WASSEN TWE KUENIGESKINNER
!!!ARE: Europa, Mitteleuropa, Deutschland, Muensterland
!!!SCT: E0084C
!!!YEM: Copyright 1995, estate of Helmut Schaffrath.
**kern
*ICvox
*Ivox
*M4/4
*k[b-]
*F:
{4c
=1
4a
8a
8a
8a
8g
4g
=2
4.g
8f
4f}
{4c
=3
4b-
8b-
8b-
8b-
8a
8cc
8a
=4
2g
4r}
{4c
=5
4cc
8cc
8cc
8cc
8b-
8b-
8b-
=6
4.a
8ff
8cc
8b-}
{8a
8g
=7
4f
8f
8f
8a
8g
4g
=8
2f}
{4.g
8b-
=9
4a
8a
8a
8cc
8b-
4g
=10
2f
4r}
==
!!!AGN: erzaehlendes Volks - Lied, Sage, Liebe, Leid, Tod, Ballade ?
!!!ONB: ESAC (Essen Associative Code) Database: ERK1
!!!AMT: simple quadruple
!!!AIN: vox
!!!EED: Helmut Schaffrath
!!!EEV: 1.0
*-
